X: 41943
T: Walking Nightmare, The
R: reel
M: 4/4
K: Ddorian
|:cBA BG ADD|CDD F2 GAB|cdBc ADDD|c/B/A BG ADDD|
cBA BG ADD|CDD F2 GAB|cdBc ADDD|1 c/B/A BG ADDD:|2 c/B/A BG AD z2||
|:c2 AG AEGA|c2 AG AdcB|c2 AG AEGA|c/B/A BG ADDD|
c2 AG AEGA|c2 AG AdcB|c2 AG AEGA|1 c/B/A BG ADDD:|2 c/B/A BG AD z2||

